src/icons/tex.svg

<svg
  clip-rule="evenodd"
  fill-rule="evenodd"
  stroke-linejoin="round"
  stroke-miterlimit="1.414"
  viewBox="0 0 500 500"
  xml:space="preserve"
  xmlns="http://www.w3.org/2000/svg"
>
  <g fill="#42a5f5" stroke-linejoin="miter">
    <path
      d="M184.43 180.6h-74.684v184.32H81.951V180.6H7.268v-24.707h177.16z"
      aria-label="T"
    />
    <path
      d="M299.52 435.56H161.81V226.53h137.71v24.707H189.6v57.275h109.92v24.707H189.6v77.631h109.92z"
      aria-label="E"
    />
    <path
      d="m492.73 152.17-72.157 103.32 72.015 105.71h-32.147l-56.995-86.053-58.398 86.053h-30.322l72.858-104.44-71.173-104.58h32.007l56.293 84.93 57.556-84.93z"
      aria-label="X"
    />
  </g>
</svg>

<svg viewBox="0 0 500 500" xmlns="http://www.w3.org/2000/svg">
  <path
    d="M184.43 180.6H109.746V364.92H81.9506V180.6H7.26758V155.893H184.428L184.43 180.6Z"
    fill="#42A5F5"
  />
  <path
    d="M299.519 435.56H161.809V226.53H299.519V251.237H189.599V308.512H299.519V333.219H189.599V410.85H299.519V435.56Z"
    fill="#42A5F5"
  />
  <path
    d="M492.731 152.17L420.574 255.49L492.589 361.2H460.442L403.447 275.147L345.049 361.2H314.727L387.585 256.76L316.412 152.18H348.419L404.712 237.11L462.268 152.18L492.731 152.17Z"
    fill="#42A5F5"
  />
</svg>
